; generated by PrusaSlicer 2.3.3+win64 on 2022-01-13 at 16:57:09 UTC

; 

; external perimeters extrusion width = 0.45mm
; perimeters extrusion width = 0.45mm
; infill extrusion width = 0.45mm
; solid infill extrusion width = 0.45mm
; top infill extrusion width = 0.40mm
; first layer extrusion width = 0.42mm

M73 P0 R146
M73 Q0 S148
M201 X1000 Y1000 Z200 E5000 ; sets maximum accelerations, mm/sec^2
M203 X200 Y200 Z12 E120 ; sets maximum feedrates, mm/sec
M204 P1250 R1250 T1250 ; sets acceleration (P, T) and retract acceleration (R), mm/sec^2
M205 X8.00 Y8.00 Z0.40 E4.50 ; sets the jerk limits, mm/sec
M205 S0 T0 ; sets the minimum extruding and travel feed rate, mm/sec
M107
;TYPE:Custom
M862.3 P "MK3" ; printer model check
M862.1 P0.4 ; nozzle diameter check
M115 U3.10.0 ; tell printer latest fw version
G90 ; use absolute coordinates
M83 ; extruder relative mode
M104 S215 ; set extruder temp
M140 S60 ; set bed temp
M190 S60 ; wait for bed temp
M109 S215 ; wait for extruder temp
G28 W ; home all without mesh bed level
G80 ; mesh bed leveling
G1 Y-3.0 F1000.0 ; go outside print area
G92 E0.0
G1 X60.0 E9.0 F1000.0 ; intro line
G1 X100.0 E12.5 F1000.0 ; intro line
G92 E0.0
M221 S95

; Don't change E values below. Excessive value can damage the printer.

M907 E538 ; set extruder motor current
G21 ; set units to millimeters
G90 ; use absolute coordinates
M83 ; use relative distances for extrusion
M900 K0.05 ; Filament gcode LA 1.5
M900 K30 ; Filament gcode LA 1.0
;LAYER_CHANGE
;Z:0.2
;HEIGHT:0.2
;BEFORE_LAYER_CHANGE
G92 E0.0
;0.2


G1 E-0.80000 F2100.000
G1 Z0.400 F10800.000
;AFTER_LAYER_CHANGE
;0.2
G1 X14.164 Y7.775
M73 P0 R145
G1 Z0.200
G1 E0.80000 F2100.000
M204 S1000
;TYPE:Skirt
;WIDTH:0.42
G1 F1200.000
G1 X14.995 Y7.623 E0.02649
G1 X235.004 Y7.623 E6.89822
G1 X235.906 Y7.802 E0.02884
G1 X236.675 Y8.313 E0.02896
G1 X237.191 Y9.079 E0.02896
G1 X237.377 Y9.980 E0.02884
G1 X237.377 Y200.011 E5.95831
M73 Q0 S147
G1 X237.322 Y200.510 E0.01574
G1 X237.161 Y200.990 E0.01585
G1 X236.905 Y201.421 E0.01574
G1 X236.564 Y201.790 E0.01574
G1 X235.836 Y202.225 E0.02661
G1 X235.005 Y202.377 E0.02649
G1 X14.996 Y202.377 E6.89822
G1 X14.493 Y202.322 E0.01585
G1 X14.014 Y202.163 E0.01585
G1 X13.579 Y201.905 E0.01585
G1 X13.210 Y201.564 E0.01574
G1 X12.776 Y200.840 E0.02649
G1 X12.623 Y200.009 E0.02649
G1 X12.623 Y9.996 E5.95771
G1 X12.678 Y9.494 E0.01585
G1 X12.837 Y9.014 E0.01585
G1 X13.095 Y8.579 E0.01585
G1 X13.436 Y8.210 E0.01574
G1 X14.112 Y7.806 E0.02473
; printing object LAMINA.STL id:0 copy 0
;WIPE_START
G1 F8640.000
G1 X14.995 Y7.623 E-0.20812
G1 X17.385 Y7.623 E-0.55188
;WIPE_END
G1 E-0.04000 F2100.000
G1 Z0.600 F10800.000
G1 X15.787 Y10.787
G1 Z0.200
G1 E0.80000 F2100.000
;TYPE:Perimeter
G1 F1200.000
G1 X234.213 Y10.787 E6.84859
G1 X234.213 Y199.213 E5.90796
M73 P0 R144
G1 X15.787 Y199.213 E6.84859
G1 X15.787 Y10.847 E5.90608
M73 P1 R144
M73 Q1 S146
G1 X15.410 Y10.410 F10800.000
;TYPE:External perimeter
G1 F1200.000
G1 X234.590 Y10.410 E6.87224
G1 X234.590 Y199.590 E5.93161
G1 X15.410 Y199.590 E6.87224
G1 X15.410 Y10.470 E5.92972
M73 P1 R143
G1 X15.799 Y10.504 F10800.000
;WIPE_START
G1 F8640.000
G1 X18.701 Y10.469 E-0.76000
;WIPE_END
G1 E-0.04000 F2100.000
G1 Z0.600 F10800.000
G1 X233.337 Y10.900
G1 Z0.200
G1 E0.80000 F2100.000
;TYPE:Solid infill
;WIDTH:0.420112
G1 F1200.000
G1 X233.930 Y11.493 E0.02629
G1 X233.930 Y12.026 E0.01673
G1 X232.974 Y11.070 E0.04243
G1 X232.440 Y11.070 E0.01673
G1 X233.930 Y12.560 E0.06609
G1 X233.930 Y13.093 E0.01673
G1 X231.907 Y11.070 E0.08975
G1 X231.373 Y11.070 E0.01673
G1 X233.930 Y13.627 E0.11341
G1 X233.930 Y14.160 E0.01673
G1 X230.840 Y11.070 E0.13707
G1 X230.306 Y11.070 E0.01673
G1 X233.930 Y14.694 E0.16073
G1 X233.930 Y15.227 E0.01673
G1 X229.773 Y11.070 E0.18439
G1 X229.240 Y11.070 E0.01673
G1 X233.930 Y15.760 E0.20805
G1 X233.930 Y16.294 E0.01673
G1 X228.706 Y11.070 E0.23171
G1 X228.173 Y11.070 E0.01673
G1 X233.930 Y16.827 E0.25537
G1 X233.930 Y17.361 E0.01673
G1 X227.639 Y11.070 E0.27903
G1 X227.106 Y11.070 E0.01673
G1 X233.930 Y17.894 E0.30269
G1 X233.930 Y18.428 E0.01673
G1 X226.572 Y11.070 E0.32635
G1 X226.039 Y11.070 E0.01673
G1 X233.930 Y18.961 E0.35001
G1 X233.930 Y19.494 E0.01673
G1 X225.506 Y11.070 E0.37367
G1 X224.972 Y11.070 E0.01673
G1 X233.930 Y20.028 E0.39733
G1 X233.930 Y20.561 E0.01673
G1 X224.439 Y11.070 E0.42099
G1 X223.905 Y11.070 E0.01673
G1 X233.930 Y21.095 E0.44465
G1 X233.930 Y21.628 E0.01673
G1 X223.372 Y11.070 E0.46831
G1 X222.838 Y11.070 E0.01673
G1 X233.930 Y22.162 E0.49197
G1 X233.930 Y22.695 E0.01673
G1 X222.305 Y11.070 E0.51563
M73 Q1 S145
G1 X221.772 Y11.070 E0.01673
G1 X233.930 Y23.228 E0.53929
G1 X233.930 Y23.762 E0.01673
G1 X221.238 Y11.070 E0.56295
G1 X220.705 Y11.070 E0.01673
G1 X233.930 Y24.295 E0.58661
G1 X233.930 Y24.829 E0.01673
G1 X220.171 Y11.070 E0.61027
G1 X219.638 Y11.070 E0.01673
G1 X233.930 Y25.362 E0.63393
G1 X233.930 Y25.896 E0.01673
G1 X219.104 Y11.070 E0.65759
G1 X218.571 Y11.070 E0.01673
G1 X233.930 Y26.429 E0.68125
G1 X233.930 Y26.962 E0.01673
G1 X218.038 Y11.070 E0.70491
G1 X217.504 Y11.070 E0.01673
G1 X233.930 Y27.496 E0.72858
G1 X233.930 Y28.029 E0.01673
G1 X216.971 Y11.070 E0.75224
G1 X216.437 Y11.070 E0.01673
G1 X233.930 Y28.563 E0.77590
G1 X233.930 Y29.096 E0.01673
G1 X215.904 Y11.070 E0.79956
G1 X215.370 Y11.070 E0.01673
G1 X233.930 Y29.630 E0.82322
G1 X233.930 Y30.163 E0.01673
G1 X214.837 Y11.070 E0.84688
G1 X214.304 Y11.070 E0.01673
G1 X233.930 Y30.696 E0.87054
G1 X233.930 Y31.230 E0.01673
G1 X213.770 Y11.070 E0.89420
G1 X213.237 Y11.070 E0.01673
G1 X233.930 Y31.763 E0.91786
G1 X233.930 Y32.297 E0.01673
G1 X212.703 Y11.070 E0.94152
G1 X212.170 Y11.070 E0.01673
G1 X233.930 Y32.830 E0.96518
G1 X233.930 Y33.364 E0.01673
G1 X211.636 Y11.070 E0.98884
G1 X211.103 Y11.070 E0.01673
G1 X233.930 Y33.897 E1.01250
G1 X233.930 Y34.431 E0.01673
G1 X210.569 Y11.070 E1.03616
G1 X210.036 Y11.070 E0.01673
G1 X233.930 Y34.964 E1.05982
G1 X233.930 Y35.497 E0.01673
G1 X209.503 Y11.070 E1.08348
G1 X208.969 Y11.070 E0.01673
G1 X233.930 Y36.031 E1.10714
M73 P2 R143
M73 Q2 S145
G1 X233.930 Y36.564 E0.01673
G1 X208.436 Y11.070 E1.13080
G1 X207.902 Y11.070 E0.01673
G1 X233.930 Y37.098 E1.15446
G1 X233.930 Y37.631 E0.01673
G1 X207.369 Y11.070 E1.17812
G1 X206.835 Y11.070 E0.01673
G1 X233.930 Y38.165 E1.20178
G1 X233.930 Y38.698 E0.01673
G1 X206.302 Y11.070 E1.22544
G1 X205.769 Y11.070 E0.01673
G1 X233.930 Y39.231 E1.24910
M73 P2 R142
G1 X233.930 Y39.765 E0.01673
G1 X205.235 Y11.070 E1.27276
G1 X204.702 Y11.070 E0.01673
G1 X233.930 Y40.298 E1.29642
G1 X233.930 Y40.832 E0.01673
G1 X204.168 Y11.070 E1.32008
G1 X203.635 Y11.070 E0.01673
G1 X233.930 Y41.365 E1.34374
G1 X233.930 Y41.899 E0.01673
G1 X203.101 Y11.070 E1.36740
G1 X202.568 Y11.070 E0.01673
G1 X233.930 Y42.432 E1.39106
G1 X233.930 Y42.965 E0.01673
G1 X202.035 Y11.070 E1.41472
M73 Q2 S144
G1 X201.501 Y11.070 E0.01673
G1 X233.930 Y43.499 E1.43838
G1 X233.930 Y44.032 E0.01673
G1 X200.968 Y11.070 E1.46204
G1 X200.434 Y11.070 E0.01673
G1 X233.930 Y44.566 E1.48570
G1 X233.930 Y45.099 E0.01673
G1 X199.901 Y11.070 E1.50936
G1 X199.367 Y11.070 E0.01673
G1 X233.930 Y45.633 E1.53302
G1 X233.930 Y46.166 E0.01673
G1 X198.834 Y11.070 E1.55668
G1 X198.301 Y11.070 E0.01673
G1 X233.930 Y46.699 E1.58034
G1 X233.930 Y47.233 E0.01673
G1 X197.767 Y11.070 E1.60400
G1 X197.234 Y11.070 E0.01673
G1 X233.930 Y47.766 E1.62766
G1 X233.930 Y48.300 E0.01673
G1 X196.700 Y11.070 E1.65132
G1 X196.167 Y11.070 E0.01673
G1 X233.930 Y48.833 E1.67498
G1 X233.930 Y49.367 E0.01673
G1 X195.633 Y11.070 E1.69864
G1 X195.100 Y11.070 E0.01673
G1 X233.930 Y49.900 E1.72230
G1 X233.930 Y50.433 E0.01673
G1 X194.567 Y11.070 E1.74597
G1 X194.033 Y11.070 E0.01673
G1 X233.930 Y50.967 E1.76963
G1 X233.930 Y51.500 E0.01673
G1 X193.500 Y11.070 E1.79329
G1 X192.966 Y11.070 E0.01673
G1 X233.930 Y52.034 E1.81695
M73 P2 R141
G1 X233.930 Y52.567 E0.01673
G1 X192.433 Y11.070 E1.84061
G1 X191.899 Y11.070 E0.01673
G1 X233.930 Y53.101 E1.86427
G1 X233.930 Y53.634 E0.01673
G1 X191.366 Y11.070 E1.88793
G1 X190.833 Y11.070 E0.01673
G1 X233.930 Y54.167 E1.91159
G1 X233.930 Y54.701 E0.01673
G1 X190.299 Y11.070 E1.93525
M73 P3 R141
M73 Q2 S143
G1 X189.766 Y11.070 E0.01673
G1 X233.930 Y55.234 E1.95891
M73 Q3 S143
G1 X233.930 Y55.768 E0.01673
G1 X189.232 Y11.070 E1.98257
G1 X188.699 Y11.070 E0.01673
G1 X233.930 Y56.301 E2.00623
G1 X233.930 Y56.835 E0.01673
G1 X188.165 Y11.070 E2.02989
G1 X187.632 Y11.070 E0.01673
G1 X233.930 Y57.368 E2.05355
G1 X233.930 Y57.901 E0.01673
G1 X187.099 Y11.070 E2.07721
G1 X186.565 Y11.070 E0.01673
G1 X233.930 Y58.435 E2.10087
G1 X233.930 Y58.968 E0.01673
G1 X186.032 Y11.070 E2.12453
G1 X185.498 Y11.070 E0.01673
G1 X233.930 Y59.502 E2.14819
G1 X233.930 Y60.035 E0.01673
G1 X184.965 Y11.070 E2.17185
G1 X184.431 Y11.070 E0.01673
G1 X233.930 Y60.569 E2.19551
G1 X233.930 Y61.102 E0.01673
G1 X183.898 Y11.070 E2.21917
G1 X183.365 Y11.070 E0.01673
G1 X233.930 Y61.635 E2.24283
M73 P3 R140
G1 X233.930 Y62.169 E0.01673
G1 X182.831 Y11.070 E2.26649
G1 X182.298 Y11.070 E0.01673
G1 X233.930 Y62.702 E2.29015
G1 X233.930 Y63.236 E0.01673
G1 X181.764 Y11.070 E2.31381
G1 X181.231 Y11.070 E0.01673
G1 X233.930 Y63.769 E2.33747
G1 X233.930 Y64.303 E0.01673
G1 X180.697 Y11.070 E2.36113
M73 Q3 S142
G1 X180.164 Y11.070 E0.01673
G1 X233.930 Y64.836 E2.38479
G1 X233.930 Y65.369 E0.01673
G1 X179.631 Y11.070 E2.40845
G1 X179.097 Y11.070 E0.01673
G1 X233.930 Y65.903 E2.43211
G1 X233.930 Y66.436 E0.01673
G1 X178.564 Y11.070 E2.45577
G1 X178.030 Y11.070 E0.01673
G1 X233.930 Y66.970 E2.47943
G1 X233.930 Y67.503 E0.01673
G1 X177.497 Y11.070 E2.50309
M73 P4 R140
G1 X176.963 Y11.070 E0.01673
G1 X233.930 Y68.037 E2.52675
G1 X233.930 Y68.570 E0.01673
G1 X176.430 Y11.070 E2.55041
M73 Q4 S142
G1 X175.897 Y11.070 E0.01673
G1 X233.930 Y69.103 E2.57407
G1 X233.930 Y69.637 E0.01673
G1 X175.363 Y11.070 E2.59773
G1 X174.830 Y11.070 E0.01673
G1 X233.930 Y70.170 E2.62139
M73 P4 R139
G1 X233.930 Y70.704 E0.01673
G1 X174.296 Y11.070 E2.64505
G1 X173.763 Y11.070 E0.01673
G1 X233.930 Y71.237 E2.66871
G1 X233.930 Y71.771 E0.01673
G1 X173.229 Y11.070 E2.69237
M73 Q4 S141
G1 X172.696 Y11.070 E0.01673
G1 X233.930 Y72.304 E2.71603
G1 X233.930 Y72.837 E0.01673
G1 X172.163 Y11.070 E2.73969
G1 X171.629 Y11.070 E0.01673
G1 X233.930 Y73.371 E2.76335
G1 X233.930 Y73.904 E0.01673
G1 X171.096 Y11.070 E2.78702
G1 X170.562 Y11.070 E0.01673
G1 X233.930 Y74.438 E2.81068
G1 X233.930 Y74.971 E0.01673
G1 X170.029 Y11.070 E2.83434
G1 X169.495 Y11.070 E0.01673
G1 X233.930 Y75.505 E2.85800
G1 X233.930 Y76.038 E0.01673
G1 X168.962 Y11.070 E2.88166
G1 X168.429 Y11.070 E0.01673
G1 X233.930 Y76.571 E2.90532
G1 X233.930 Y77.105 E0.01673
G1 X167.895 Y11.070 E2.92898
M73 P4 R138
G1 X167.362 Y11.070 E0.01673
G1 X233.930 Y77.638 E2.95264
G1 X233.930 Y78.172 E0.01673
G1 X166.828 Y11.070 E2.97630
M73 P5 R138
G1 X166.295 Y11.070 E0.01673
G1 X233.930 Y78.705 E2.99996
M73 Q5 S140
G1 X233.930 Y79.239 E0.01673
G1 X165.761 Y11.070 E3.02362
G1 X165.228 Y11.070 E0.01673
G1 X233.930 Y79.772 E3.04728
G1 X233.930 Y80.305 E0.01673
G1 X164.695 Y11.070 E3.07094
G1 X164.161 Y11.070 E0.01673
G1 X233.930 Y80.839 E3.09460
G1 X233.930 Y81.372 E0.01673
G1 X163.628 Y11.070 E3.11826
G1 X163.094 Y11.070 E0.01673
G1 X233.930 Y81.906 E3.14192
G1 X233.930 Y82.439 E0.01673
G1 X162.561 Y11.070 E3.16558
G1 X162.027 Y11.070 E0.01673
G1 X233.930 Y82.973 E3.18924
G1 X233.930 Y83.506 E0.01673
G1 X161.494 Y11.070 E3.21290
M73 P5 R137
G1 X160.961 Y11.070 E0.01673
G1 X233.930 Y84.040 E3.23656
G1 X233.930 Y84.573 E0.01673
G1 X160.427 Y11.070 E3.26022
G1 X159.894 Y11.070 E0.01673
G1 X233.930 Y85.106 E3.28388
M73 Q5 S139
G1 X233.930 Y85.640 E0.01673
G1 X159.360 Y11.070 E3.30754
G1 X158.827 Y11.070 E0.01673
G1 X233.930 Y86.173 E3.33120
G1 X233.930 Y86.707 E0.01673
G1 X158.293 Y11.070 E3.35486
G1 X157.760 Y11.070 E0.01673
G1 X233.930 Y87.240 E3.37852
M73 P6 R137
G1 X233.930 Y87.774 E0.01673
G1 X157.226 Y11.070 E3.40218
G1 X156.693 Y11.070 E0.01673
G1 X233.930 Y88.307 E3.42584
M73 Q6 S139
G1 X233.930 Y88.840 E0.01673
G1 X156.160 Y11.070 E3.44950
G1 X155.626 Y11.070 E0.01673
G1 X233.930 Y89.374 E3.47316
M73 P6 R136
G1 X233.930 Y89.907 E0.01673
G1 X155.093 Y11.070 E3.49682
G1 X154.559 Y11.070 E0.01673
G1 X233.930 Y90.441 E3.52048
G1 X233.930 Y90.974 E0.01673
G1 X154.026 Y11.070 E3.54414
M73 Q6 S138
G1 X153.492 Y11.070 E0.01673
G1 X233.930 Y91.508 E3.56780
G1 X233.930 Y92.041 E0.01673
G1 X152.959 Y11.070 E3.59146
G1 X152.426 Y11.070 E0.01673
G1 X233.930 Y92.574 E3.61512
G1 X233.930 Y93.108 E0.01673
G1 X151.892 Y11.070 E3.63878
G1 X151.359 Y11.070 E0.01673
G1 X233.930 Y93.641 E3.66244
G1 X233.930 Y94.175 E0.01673
G1 X150.825 Y11.070 E3.68610
G1 X150.292 Y11.070 E0.01673
G1 X233.930 Y94.708 E3.70976
G1 X233.930 Y95.242 E0.01673
G1 X149.758 Y11.070 E3.73342
M73 P6 R135
G1 X149.225 Y11.070 E0.01673
G1 X233.930 Y95.775 E3.75708
M73 P7 R135
G1 X233.930 Y96.308 E0.01673
G1 X148.692 Y11.070 E3.78074
M73 Q7 S137
G1 X148.158 Y11.070 E0.01673
G1 X233.930 Y96.842 E3.80441
G1 X233.930 Y97.375 E0.01673
G1 X147.625 Y11.070 E3.82807
G1 X147.091 Y11.070 E0.01673
G1 X233.930 Y97.909 E3.85173
G1 X233.930 Y98.442 E0.01673
G1 X146.558 Y11.070 E3.87539
G1 X146.024 Y11.070 E0.01673
G1 X233.930 Y98.976 E3.89905
G1 X233.930 Y99.509 E0.01673
G1 X145.491 Y11.070 E3.92271
G1 X144.958 Y11.070 E0.01673
G1 X233.930 Y100.042 E3.94637
M73 P7 R134
G1 X233.930 Y100.576 E0.01673
G1 X144.424 Y11.070 E3.97003
G1 X143.891 Y11.070 E0.01673
G1 X233.930 Y101.109 E3.99369
G1 X233.930 Y101.643 E0.01673
G1 X143.357 Y11.070 E4.01735
M73 Q7 S136
G1 X142.824 Y11.070 E0.01673
G1 X233.930 Y102.176 E4.04101
G1 X233.930 Y102.710 E0.01673
G1 X142.290 Y11.070 E4.06467
G1 X141.757 Y11.070 E0.01673
G1 X233.930 Y103.243 E4.08833
M73 P8 R134
G1 X233.930 Y103.776 E0.01673
G1 X141.224 Y11.070 E4.11199
M73 Q8 S136
G1 X140.690 Y11.070 E0.01673
G1 X233.930 Y104.310 E4.13565
G1 X233.930 Y104.843 E0.01673
G1 X140.157 Y11.070 E4.15931
G1 X139.623 Y11.070 E0.01673
G1 X233.930 Y105.377 E4.18297
M73 P8 R133
G1 X233.930 Y105.910 E0.01673
G1 X139.090 Y11.070 E4.20663
G1 X138.556 Y11.070 E0.01673
G1 X233.930 Y106.444 E4.23029
M73 Q8 S135
G1 X233.930 Y106.977 E0.01673
G1 X138.023 Y11.070 E4.25395
G1 X137.490 Y11.070 E0.01673
G1 X233.930 Y107.510 E4.27761
G1 X233.930 Y108.044 E0.01673
G1 X136.956 Y11.070 E4.30127
G1 X136.423 Y11.070 E0.01673
G1 X233.930 Y108.577 E4.32493
G1 X233.930 Y109.111 E0.01673
G1 X135.889 Y11.070 E4.34859
G1 X135.356 Y11.070 E0.01673
G1 X233.930 Y109.644 E4.37225
M73 P9 R132
G1 X233.930 Y110.178 E0.01673
G1 X134.822 Y11.070 E4.39591
G1 X134.289 Y11.070 E0.01673
G1 X233.930 Y110.711 E4.41957
M73 Q9 S135
G1 X233.930 Y111.244 E0.01673
G1 X133.756 Y11.070 E4.44323
M73 Q9 S134
G1 X133.222 Y11.070 E0.01673
G1 X233.930 Y111.778 E4.46689
G1 X233.930 Y112.311 E0.01673
G1 X132.689 Y11.070 E4.49055
G1 X132.155 Y11.070 E0.01673
G1 X233.930 Y112.845 E4.51421
G1 X233.930 Y113.378 E0.01673
G1 X131.622 Y11.070 E4.53787
G1 X131.088 Y11.070 E0.01673
G1 X233.930 Y113.912 E4.56153
G1 X233.930 Y114.445 E0.01673
G1 X130.555 Y11.070 E4.58519
M73 P9 R131
G1 X130.022 Y11.070 E0.01673
G1 X233.930 Y114.978 E4.60885
G1 X233.930 Y115.512 E0.01673
G1 X129.488 Y11.070 E4.63251
M73 Q9 S133
G1 X128.955 Y11.070 E0.01673
G1 X233.930 Y116.045 E4.65617
M73 P10 R131
G1 X233.930 Y116.579 E0.01673
G1 X128.421 Y11.070 E4.67983
G1 X127.888 Y11.070 E0.01673
G1 X233.930 Y117.112 E4.70349
M73 Q10 S133
G1 X233.930 Y117.646 E0.01673
G1 X127.354 Y11.070 E4.72715
G1 X126.821 Y11.070 E0.01673
G1 X233.930 Y118.179 E4.75081
G1 X233.930 Y118.712 E0.01673
G1 X126.288 Y11.070 E4.77447
M73 P10 R130
G1 X125.754 Y11.070 E0.01673
G1 X233.930 Y119.246 E4.79813
G1 X233.930 Y119.779 E0.01673
G1 X125.221 Y11.070 E4.82180
M73 Q10 S132
G1 X124.687 Y11.070 E0.01673
G1 X233.930 Y120.313 E4.84546
G1 X233.930 Y120.846 E0.01673
G1 X124.154 Y11.070 E4.86912
G1 X123.620 Y11.070 E0.01673
G1 X233.930 Y121.380 E4.89278
G1 X233.930 Y121.913 E0.01673
G1 X123.087 Y11.070 E4.91644
G1 X122.554 Y11.070 E0.01673
G1 X233.930 Y122.446 E4.94010
M73 P11 R130
